img/icons/arrow.svg

<svg width="21" height="22" viewBox="0 0 21 22" fill="none" xmlns="http://www.w3.org/2000/svg">
<g clip-path="url(#clip0_31_187)">
<path d="M20.6643 10.148L13.0805 2.20284C12.864 1.97605 12.5755 1.85156 12.2678 1.85156C11.9598 1.85156 11.6715 1.97623 11.455 2.20284L10.7664 2.92437C10.5501 3.1508 10.4309 3.45326 10.4309 3.77574C10.4309 4.09805 10.5501 4.4107 10.7664 4.63713L15.1907 9.28231H1.1345C0.500752 9.28231 0 9.80208 0 10.4662V11.4862C0 12.1503 0.500752 12.7225 1.1345 12.7225H15.2409L10.7666 17.3936C10.5503 17.6204 10.4311 17.9147 10.4311 18.2371C10.4311 18.5593 10.5503 18.8578 10.7666 19.0844L11.4552 19.8036C11.6716 20.0304 11.96 20.154 12.268 20.154C12.5757 20.154 12.8642 20.0288 13.0807 19.802L20.6645 11.857C20.8815 11.6295 21.0009 11.3258 21 11.003C21.0007 10.679 20.8815 10.3752 20.6643 10.148Z" fill="white"/>
</g>
<defs>
<clipPath id="clip0_31_187">
<rect width="21" height="22" fill="white"/>
</clipPath>
</defs>
</svg>

<svg width="21" height="22" viewBox="0 0 21 22" fill="none" xmlns="http://www.w3.org/2000/svg"><g clip-path="url(#a)"><path d="M20.664 10.148 13.08 2.203a1.115 1.115 0 0 0-1.625 0l-.689.721a1.225 1.225 0 0 0-.335.852c0 .322.12.635.335.861l4.425 4.645H1.134C.501 9.282 0 9.802 0 10.466v1.02c0 .664.5 1.236 1.135 1.236H15.24l-4.474 4.672a1.207 1.207 0 0 0-.336.843c0 .322.12.62.336.847l.688.72a1.114 1.114 0 0 0 1.626-.002l7.584-7.945c.216-.227.336-.531.335-.854a1.23 1.23 0 0 0-.336-.855Z" fill="#fff"/></g><defs><clipPath id="a"><path fill="#fff" d="M0 0h21v22H0z"/></clipPath></defs></svg>
